packages/icons/svg/24/Link.svg

<svg width="24" height="24" viewBox="0 0 24 24" fill="none" xmlns="http://www.w3.org/2000/svg">
<path d="M14.0315 3.36666C15.8537 1.54445 18.8081 1.54445 20.6303 3.36666C22.4526 5.18887 22.4526 8.14327 20.6302 9.96548L16.3877 14.208C15.7909 14.805 15.0434 15.2289 14.2247 15.4345H14.1881L13.9948 15.4745L13.8881 15.4945L13.6581 15.5278H13.5448C13.4946 15.5278 13.4477 15.5334 13.4029 15.5388C13.3704 15.5427 13.339 15.5464 13.3082 15.5478L13.1082 15.5711H12.855C12.6887 15.5645 12.523 15.5489 12.3584 15.5244C12.2218 15.5011 12.0884 15.4745 11.9551 15.4411L11.7585 15.3878C11.6885 15.3678 11.6152 15.3445 11.5452 15.3178C11.5196 15.3081 11.4935 15.2988 11.4673 15.2894C11.422 15.2732 11.3763 15.2569 11.3319 15.2379C11.3086 15.2279 11.2853 15.2182 11.2619 15.2086C11.2153 15.1893 11.1686 15.1701 11.122 15.1479C10.626 14.918 10.1746 14.6021 9.78887 14.2147C9.51869 13.9439 9.37789 13.57 9.40226 13.1882C9.42371 12.8664 9.56106 12.5633 9.78887 12.3351C10.315 11.8399 11.1357 11.8399 11.6619 12.3351C12.4426 13.1148 13.7073 13.1148 14.488 12.3351L15.5812 11.2486L15.6078 11.2186L18.734 8.09582C19.5153 7.31447 19.5153 6.04767 18.734 5.26632C17.9526 4.48498 16.6858 4.48498 15.9045 5.26632L13.3949 7.77255C13.2998 7.86824 13.1564 7.89722 13.0317 7.84586C12.3557 7.56943 11.6323 7.42793 10.902 7.42926H10.7787C10.6426 7.43187 10.5185 7.35138 10.4655 7.22597C10.4118 7.10092 10.4395 6.95582 10.5355 6.85936L14.0315 3.36666Z" fill="#858585"/>
<path d="M13.4183 9.16563C13.7019 9.34595 13.9646 9.5572 14.2015 9.79552C14.4717 10.0663 14.6125 10.4402 14.5881 10.822C14.5651 11.1415 14.4279 11.4419 14.2015 11.6685C13.6754 12.1637 12.8547 12.1637 12.3285 11.6685C11.5478 10.8888 10.2831 10.8888 9.50237 11.6685L5.24645 15.9211C4.46511 16.7024 4.46511 17.9692 5.24645 18.7506C6.0278 19.5319 7.2946 19.5319 8.07595 18.7506L10.5922 16.231C10.6872 16.1353 10.8307 16.1063 10.9554 16.1577C11.6327 16.4331 12.3573 16.5735 13.0884 16.571H13.2217C13.4057 16.5699 13.5558 16.7182 13.5569 16.9023C13.5574 16.9918 13.5219 17.0778 13.4583 17.1408L9.95893 20.6402C9.08542 21.5148 7.89887 22.0043 6.66284 22C4.08596 21.9983 1.99836 19.9081 2 17.3312C2.00078 16.0963 2.49109 14.9121 3.36343 14.0381L7.60267 9.79552C8.4765 8.91865 9.66414 8.42678 10.9021 8.42909C11.794 8.42909 12.6672 8.68466 13.4183 9.16563Z" fill="#858585"/>
</svg>

<svg width="24" height="24" fill="none" xmlns="http://www.w3.org/2000/svg" viewBox="0 0 24 24"><path d="M14.031 3.367a4.666 4.666 0 116.6 6.598l-4.243 4.243a4.665 4.665 0 01-2.163 1.226h-.037l-.193.04-.107.02-.23.034h-.113c-.05 0-.097.005-.142.01a1.296 1.296 0 01-.095.01l-.2.023h-.253a4.616 4.616 0 01-.497-.047 5.356 5.356 0 01-.403-.083l-.197-.053a2.64 2.64 0 01-.213-.07l-.078-.029c-.045-.016-.09-.032-.135-.051a4.71 4.71 0 00-.07-.03 4.627 4.627 0 01-1.473-.994 1.333 1.333 0 010-1.879 1.366 1.366 0 011.873 0 2 2 0 002.826 0l1.093-1.086.027-.03 3.126-3.123a2 2 0 00-2.83-2.83l-2.51 2.507a.333.333 0 01-.362.073 5.6 5.6 0 00-2.13-.417h-.123a.333.333 0 01-.243-.57l3.495-3.492z" fill="currentColor"></path><path d="M13.418 9.166c.284.18.547.391.784.63.27.27.41.644.386 1.026-.023.32-.16.62-.386.847a1.366 1.366 0 01-1.873 0 2 2 0 00-2.827 0L5.246 15.92a2 2 0 002.83 2.83l2.516-2.52a.333.333 0 01.363-.073 5.612 5.612 0 002.133.413h.134a.333.333 0 01.236.57l-3.5 3.5A4.636 4.636 0 016.664 22a4.666 4.666 0 01-3.3-7.962l4.24-4.242a4.666 4.666 0 015.816-.63z" fill="currentColor"></path></svg>
